X:36
T:Glass of Beer (reel), The
F:file ID fs.1/036glass
Z:bill@capeirish.com
M:4/4
B:FS1.13b
L:1/8
Q:180
R:Reel
K:Bm
fB ~B2 fBaB|fB ~B2 e2 de|fB ~B2 fgfe|dfaf e2 de|
fB ~B2 fBaB|fB ~B2 e2 de|fB ~B2 fgfe|dfaf efdB||
d3 e f2 fe|defd edBc|dcde fgfe|dfaf efdB|
d3 e f2 fe|defd edBc|dcde fgfe|dfaf e4||

